icons/phone-camera-fill.svg

<svg viewBox="0 0 24 24" fill="currentColor" xmlns="http://www.w3.org/2000/svg"><path d="M14.8027 4C14.2922 4.88252 14 5.90714 14 7C14 10.3137 16.6863 13 20 13C21.0929 13 22.1175 12.7078 23 12.1973V18.9991C23 19.5519 22.5605 20 21.9975 20H2.00246C1.44882 20 1 19.5554 1 18.9991V5.00087C1 4.44811 1.43946 4 2.00246 4H14.8027ZM20 11C17.7909 11 16 9.20914 16 7C16 4.79086 17.7909 3 20 3C22.2091 3 24 4.79086 24 7C24 9.20914 22.2091 11 20 11ZM20 9C21.1046 9 22 8.10457 22 7C22 5.89543 21.1046 5 20 5C18.8954 5 18 5.89543 18 7C18 8.10457 18.8954 9 20 9ZM19 15V18H21V15H19Z"/></svg>

<svg xmlns="http://www.w3.org/2000/svg" viewBox="0 0 24 24">
    <g>
        <path fill="none" d="M0 0h24v24H0z"/>
        <path d="M14.803 4A6 6 0 0 0 23 12.197V19c0 .553-.44 1.001-1.002 1.001H2.002A1 1 0 0 1 1 19V5c0-.552.44-1 1.002-1h12.8zM20 11a4 4 0 1 1 0-8 4 4 0 0 1 0 8zm0-2a2 2 0 1 0 0-4 2 2 0 0 0 0 4zm-1 6v3h2v-3h-2z"/>
    </g>
</svg>
